X: 101
M: 6/8
L: 1/8
K: G
V: 1
c |\
|: c |\
(B/c/d).B GBG | (B/c/d).B G2c | (B/c/d).B GBG | AFD D2c |\
(B/c/d).B GBG | B/c/dB c2e | dcB (A/B/c).B | AFD D2 :|
|: g |\
V: 2 clef=bass middle=d
z |\
g3 e2c | [d2B2][ec] [d2B2]z | g3 e2c' | [b2g2][af] [b2g2]z |\
g3 e2c' | b2g e2c' | b2g f2g | d3 D2 :|
|: z |\
[d'3b3g3] [d'3b3g3] | [d'3b3g3] [d'3b3g3] | [d'3b3g3] [d'3b3g3] | [a3f3d3] [a3f3d3] |\
[d'3b3g3] [d'3b3g3] | [d'3b3g3] e2c' | b2g f2g | d3 D2 :|
|: z |\
dd'c' b2g | b2g b2g | d'2c' b2g | d3 D2z |\
dd'c' b2g | f2d' b2g | f3 g3 | d3 D2 :|


